gama.ui.shared/icons_svg/light/overlays/small.revert.svg

<svg height="16" viewBox="-832 -3507.488 16 16" width="16" xmlns="http://www.w3.org/2000/svg"><g fill="none"><path d="m-826.2703-3499.4884-3.7297 3.7298 2.2703 2.2702 3.7297-3.7296 3.7297 3.7296 2.2703-2.2702-3.7297-3.7298 3.7297-3.7296-2.2703-2.2704-3.7297 3.7298-3.7297-3.7298-2.2703 2.2704z" fill="#fff"/><path d="m-826.2703-3499.4884-3.7297 3.7298 2.2703 2.2702 3.7297-3.7296 3.7297 3.7296 2.2703-2.2702-3.7297-3.7298 3.7297-3.7296-2.2703-2.2704-3.7297 3.7298-3.7297-3.7298-2.2703 2.2704z" stroke="#000" stroke-linecap="round" stroke-linejoin="round" stroke-width=".5"/></g></svg>

<?xml version="1.0" encoding="UTF-8" standalone="no"?>
<!DOCTYPE svg PUBLIC "-//W3C//DTD SVG 1.1//EN" "http://www.w3.org/Graphics/SVG/1.1/DTD/svg11.dtd">
<svg version="1.1" xmlns="http://www.w3.org/2000/svg" xmlns:xl="http://www.w3.org/1999/xlink" xmlns:dc="http://purl.org/dc/elements/1.1/" viewBox="-832 -3507.4884 16.000008 16.000008" width="16.000008" height="16.000008">
  <defs/>
  <g id="SOURCES" stroke-dasharray="none" fill="none" stroke="none" fill-opacity="1" stroke-opacity="1">
    <title>SOURCES</title>
    <g id="SOURCES_Calque_2">
      <title>Calque 2</title>
      <g id="Graphic_9386"/>
      <g id="Graphic_9384">
        <path d="M -826.2703 -3499.4884 L -830 -3495.7586 L -827.7297 -3493.4884 L -824 -3497.218 L -820.2703 -3493.4884 L -818 -3495.7586 L -821.7297 -3499.4884 L -818 -3503.218 L -820.2703 -3505.4884 L -824 -3501.7586 L -827.7297 -3505.4884 L -830 -3503.218 Z" fill="white"/>
        <path d="M -826.2703 -3499.4884 L -830 -3495.7586 L -827.7297 -3493.4884 L -824 -3497.218 L -820.2703 -3493.4884 L -818 -3495.7586 L -821.7297 -3499.4884 L -818 -3503.218 L -820.2703 -3505.4884 L -824 -3501.7586 L -827.7297 -3505.4884 L -830 -3503.218 Z" stroke="black" stroke-linecap="round" stroke-linejoin="round" stroke-width=".5"/>
      </g>
    </g>
  </g>
</svg>
